icons/midnadark/actions/24/run-build-configure.svg

<?xml version="1.0" encoding="UTF-8" standalone="no"?>
<!-- Created with Inkscape (http://www.inkscape.org/) -->

<svg
   xmlns:sketch="http://www.bohemiancoding.com/sketch/ns"
   xmlns:dc="http://purl.org/dc/elements/1.1/"
   xmlns:cc="http://creativecommons.org/ns#"
   xmlns:rdf="http://www.w3.org/1999/02/22-rdf-syntax-ns#"
   xmlns:svg="http://www.w3.org/2000/svg"
   xmlns="http://www.w3.org/2000/svg"
   xmlns:xlink="http://www.w3.org/1999/xlink"
   xmlns:sodipodi="http://sodipodi.sourceforge.net/DTD/sodipodi-0.dtd"
   xmlns:inkscape="http://www.inkscape.org/namespaces/inkscape"
   width="22"
   height="22"
   id="svg3869"
   version="1.1"
   inkscape:version="0.91 r13725"
   sodipodi:docname="run-build-configure.svg">
  <defs
     id="defs3871">
    <clipPath
       clipPathUnits="userSpaceOnUse"
       id="clipPath4160">
      <rect
         style="opacity:1;fill:#f2f2f2;fill-opacity:1;stroke:none;stroke-opacity:1"
         id="rect4162"
         width="1"
         height="1"
         x="7"
         y="1023.3622" />
    </clipPath>
    <linearGradient
       y2="1045.3622"
       x2="15"
       y1="1045.3622"
       x1="3"
       gradientUnits="userSpaceOnUse"
       id="linearGradient4123"
       xlink:href="#linearGradient4021-3"
       inkscape:collect="always"
       gradientTransform="translate(0,-1.9999941)" />
    <linearGradient
       id="linearGradient4021-3">
      <stop
         style="stop-color:#b3b3b3;stop-opacity:1;"
         offset="0"
         id="stop4023-0" />
      <stop
         style="stop-color:#4d4d4d;stop-opacity:1;"
         offset="1"
         id="stop4025-2" />
    </linearGradient>
    <clipPath
       clipPathUnits="userSpaceOnUse"
       id="clipPath4160-8">
      <rect
         style="opacity:1;fill:#f2f2f2;fill-opacity:1;stroke:none;stroke-opacity:1"
         id="rect4162-9"
         width="1"
         height="1"
         x="7"
         y="1023.3622" />
    </clipPath>
  </defs>
  <sodipodi:namedview
     id="base"
     pagecolor="#ffffff"
     bordercolor="#666666"
     borderopacity="1.0"
     inkscape:pageopacity="0.0"
     inkscape:pageshadow="2"
     inkscape:zoom="16"
     inkscape:cx="-1.875"
     inkscape:cy="11.944632"
     inkscape:document-units="px"
     inkscape:current-layer="layer1-5"
     showgrid="true"
     fit-margin-top="0"
     fit-margin-left="0"
     fit-margin-right="0"
     fit-margin-bottom="0"
     inkscape:window-width="1366"
     inkscape:window-height="633"
     inkscape:window-x="0"
     inkscape:window-y="33"
     inkscape:window-maximized="1"
     inkscape:showpageshadow="false">
    <inkscape:grid
       type="xygrid"
       id="grid4132" />
    <sodipodi:guide
       position="4,18"
       orientation="18,0"
       id="guide4138" />
    <sodipodi:guide
       position="5,3"
       orientation="0,18"
       id="guide4140" />
    <sodipodi:guide
       position="20,2.0000174"
       orientation="-18,0"
       id="guide4142" />
    <sodipodi:guide
       position="2,21"
       orientation="0,-18"
       id="guide4144" />
    <sodipodi:guide
       position="3,19.000017"
       orientation="16,0"
       id="guide4146" />
    <sodipodi:guide
       position="2,4"
       orientation="0,16"
       id="guide4148" />
    <sodipodi:guide
       position="21,20"
       orientation="-16,0"
       id="guide4150" />
    <sodipodi:guide
       position="2,20"
       orientation="0,-16"
       id="guide4152" />
  </sodipodi:namedview>
  <metadata
     id="metadata3874">
    <rdf:RDF>
      <cc:Work
         rdf:about="">
        <dc:format>image/svg+xml</dc:format>
        <dc:type
           rdf:resource="http://purl.org/dc/dcmitype/StillImage" />
        <dc:title />
      </cc:Work>
    </rdf:RDF>
  </metadata>
  <g
     inkscape:label="Capa 1"
     inkscape:groupmode="layer"
     id="layer1"
     transform="translate(-326,-534.3622)">
    <g
       id="layer1-69"
       inkscape:label="Capa 1"
       transform="matrix(0.63636364,0,0,1,131.625,-3.6875)">
      <g
         inkscape:label="Capa 1"
         id="layer1-5"
         transform="matrix(1,0,0,0.46875,-94.272326,293.90559)">
        <g
           id="g4166"
           transform="translate(-1.57144,2.1333519)"
           style="fill:#ffffff;fill-opacity:1">
          <g
             transform="matrix(1.5714286,0,0,2.1333333,-112.56696,-619.13193)"
             inkscape:label="Capa 1"
             id="layer1-6"
             style="fill:#ffffff;fill-opacity:1">
            <g
               transform="matrix(0.66666669,0,0,0.66666669,70.95237,189.83022)"
               id="layer1-3"
               inkscape:label="Capa 1"
               style="fill:#ffffff;fill-opacity:1">
              <g
                 inkscape:label="Capa 1"
                 id="layer1-8"
                 transform="matrix(1.5359999,0,0,1.5359999,383.7381,-1067.9379)"
                 style="fill:#ffffff;fill-opacity:1">
                <g
                   id="cog2"
                   sketch:type="MSLayerGroup"
                   transform="matrix(0.12485916,0,0,0.12485916,3.0932607,1033.6287)"
                   style="fill:#ffffff;fill-opacity:1">
                  <path
                     style="fill:#ffffff;fill-opacity:1"
                     d="M 9.84375 3 C 9.6423771 3 9.5173352 3.096547 9.46875 3.2910156 C 9.3784838 3.6381441 9.2771223 4.284045 9.1660156 5.2285156 C 8.8395998 5.3328459 8.5243253 5.4653081 8.21875 5.625 L 6.78125 4.5097656 C 6.6909838 4.4403399 6.6000318 4.40625 6.5097656 4.40625 C 6.356978 4.40625 6.0288867 4.6537988 5.5253906 5.1503906 C 5.0218946 5.6469825 4.6806602 6.0215263 4.5 6.2714844 C 4.4374785 6.3617506 4.40625 6.4403399 4.40625 6.5097656 C 4.40625 6.5931276 4.4403399 6.6765315 4.5097656 6.7597656 C 4.9750328 7.322331 5.3471694 7.8012963 5.625 8.1972656 C 5.4513719 8.5166493 5.3159204 8.8368663 5.21875 9.15625 L 3.28125 9.4472656 C 3.2049201 9.4612019 3.1396016 9.5075266 3.0839844 9.5839844 C 3.0283671 9.6603143 3 9.7390315 3 9.8222656 L 3 12.134766 C 3 12.22516 3.0283671 12.307982 3.0839844 12.380859 C 3.1396016 12.453865 3.2124682 12.495957 3.3027344 12.509766 L 5.2089844 12.791016 C 5.3061548 13.13124 5.4472012 13.475137 5.6347656 13.822266 C 5.5098505 13.995894 5.3222237 14.240581 5.0722656 14.556641 C 4.8223076 14.8727 4.6450902 15.104117 4.5410156 15.25 C 4.4853984 15.326586 4.4589844 15.406872 4.4589844 15.490234 C 4.4589844 15.580501 4.4826648 15.65909 4.53125 15.728516 C 4.8020485 16.103644 5.374955 16.686961 6.25 17.478516 C 6.3264578 17.554973 6.4125952 17.59375 6.5097656 17.59375 C 6.6139681 17.59375 6.7020587 17.562394 6.7714844 17.5 L 8.2402344 16.384766 C 8.5250971 16.530649 8.8375101 16.66025 9.1777344 16.771484 L 9.46875 18.6875 C 9.4757821 18.777766 9.5150128 18.85304 9.5878906 18.912109 C 9.6607684 18.971307 9.7465796 19 9.84375 19 L 12.15625 19 C 12.357879 19 12.482537 18.903453 12.53125 18.708984 C 12.621388 18.361728 12.722878 17.715955 12.833984 16.771484 C 13.1604 16.667282 13.475803 16.534692 13.78125 16.375 L 15.21875 17.5 C 15.31592 17.562394 15.407 17.59375 15.490234 17.59375 C 15.642894 17.59375 15.968834 17.346655 16.46875 16.853516 C 16.968922 16.360504 17.312691 15.985506 17.5 15.728516 C 17.562521 15.65909 17.59375 15.580501 17.59375 15.490234 C 17.59375 15.399968 17.559788 15.311622 17.490234 15.228516 C 16.990318 14.617365 16.618182 14.138272 16.375 13.791016 C 16.513851 13.534026 16.649303 13.218751 16.78125 12.84375 L 18.708984 12.552734 C 18.792218 12.538798 18.860526 12.492473 18.916016 12.416016 C 18.971505 12.339558 19 12.260968 19 12.177734 L 19 9.8652344 C 19.000128 9.7749682 18.971761 9.6921463 18.916016 9.6191406 C 18.860271 9.546135 18.787532 9.5040428 18.697266 9.4902344 L 16.791016 9.1972656 C 16.686813 8.8639456 16.545767 8.5249907 16.365234 8.1777344 C 16.490149 8.0041062 16.677776 7.7594188 16.927734 7.4433594 C 17.177692 7.1272999 17.354782 6.8958834 17.458984 6.75 C 17.514602 6.6735422 17.541016 6.5931276 17.541016 6.5097656 C 17.541016 6.4125952 17.517463 6.3368673 17.46875 6.28125 C 17.218792 5.9269617 16.645885 5.3362253 15.75 4.5097656 C 15.666894 4.4403399 15.580373 4.40625 15.490234 4.40625 C 15.386032 4.40625 15.302756 4.4376064 15.240234 4.5 L 13.759766 5.6152344 C 13.474903 5.4693509 13.16249 5.3396223 12.822266 5.2285156 L 12.53125 3.3125 C 12.524346 3.2222338 12.484987 3.14696 12.412109 3.0878906 C 12.339104 3.0288213 12.253676 3 12.15625 3 L 9.84375 3 z M 8.4707031 8.7695312 L 13.529297 8.7695312 C 13.803521 8.7695312 14.025391 8.9576875 14.025391 9.1914062 L 14.025391 9.2851562 C 14.025391 9.518875 13.803521 9.7070312 13.529297 9.7070312 L 8.4707031 9.7070312 C 8.1964795 9.7070312 7.9746094 9.518875 7.9746094 9.2851562 L 7.9746094 9.1914062 C 7.9746094 8.9576875 8.1964795 8.7695312 8.4707031 8.7695312 z M 8.4707031 10.742188 L 13.529297 10.742188 C 13.803521 10.742188 14.025391 10.930344 14.025391 11.164062 L 14.025391 11.257812 C 14.025391 11.491531 13.803521 11.679688 13.529297 11.679688 L 8.4707031 11.679688 C 8.1964795 11.679688 7.9746094 11.491531 7.9746094 11.257812 L 7.9746094 11.164062 C 7.9746094 10.930344 8.1964795 10.742188 8.4707031 10.742188 z M 8.4707031 12.693359 L 13.529297 12.693359 C 13.803521 12.693359 14.025391 12.881516 14.025391 13.115234 L 14.025391 13.208984 C 14.025391 13.442703 13.803521 13.630859 13.529297 13.630859 L 8.4707031 13.630859 C 8.1964795 13.630859 7.9746094 13.442703 7.9746094 13.208984 L 7.9746094 13.115234 C 7.9746094 12.881516 8.1964795 12.693359 8.4707031 12.693359 z "
                     transform="matrix(7.8213125,0,0,7.8213128,-23.035936,-23.034941)"
                     id="path4463" />
                </g>
              </g>
            </g>
          </g>
          <g
             transform="matrix(0.86426565,0,0,1,56.857392,-0.62386237)"
             id="g4297"
             style="fill:#ffffff;fill-opacity:1" />
        </g>
      </g>
    </g>
  </g>
</svg>

<svg xmlns="http://www.w3.org/2000/svg" viewBox="0 0 22 22"><defs><clipPath><path fill="#f2f2f2" d="m7 1023.36h1v1h-1z"/></clipPath><clipPath><path fill="#f2f2f2" d="m7 1023.36h1v1h-1z"/></clipPath></defs><path d="m9.844 3c-.201 0-.326.097-.375.291-.09.347-.192.993-.303 1.937-.326.104-.642.237-.947.396l-1.438-1.115c-.09-.069-.181-.104-.271-.104-.153 0-.481.248-.984.744-.503.497-.845.871-1.025 1.121-.063.09-.094.169-.094.238 0 .083.034.167.104.25.465.563.837 1.042 1.115 1.438-.174.319-.309.64-.406.959l-1.938.291c-.076.014-.142.06-.197.137-.056.076-.084.155-.084.238v2.313c0 .09.028.173.084.246.056.073.128.115.219.129l1.906.281c.097.34.238.684.426 1.031-.125.174-.313.418-.563.734-.25.316-.427.547-.531.693-.056.077-.082.157-.082.24 0 .09.024.169.072.238.271.375.844.958 1.719 1.75.076.076.163.115.26.115.104 0 .192-.031.262-.094l1.469-1.115c.285.146.597.275.938.387l.291 1.916c.007.09.046.166.119.225.073.059.159.088.256.088h2.313c.202 0 .326-.097.375-.291.09-.347.192-.993.303-1.938.326-.104.642-.237.947-.396l1.438 1.125c.097.062.188.094.271.094.153 0 .479-.247.979-.74.5-.493.844-.868 1.031-1.125.063-.069.094-.148.094-.238 0-.09-.034-.179-.104-.262-.5-.611-.872-1.09-1.115-1.438.139-.257.274-.572.406-.947l1.928-.291c.083-.014.152-.06.207-.137.055-.076.084-.155.084-.238v-2.312c0-.09-.028-.173-.084-.246-.056-.073-.128-.115-.219-.129l-1.906-.293c-.104-.333-.245-.672-.426-1.02.125-.174.313-.418.563-.734.25-.316.427-.547.531-.693.056-.076.082-.157.082-.24 0-.097-.024-.173-.072-.229-.25-.354-.823-.945-1.719-1.771-.083-.069-.17-.104-.26-.104-.104 0-.187.031-.25.094l-1.48 1.115c-.285-.146-.597-.276-.938-.387l-.291-1.916c-.007-.09-.046-.166-.119-.225-.073-.059-.158-.088-.256-.088h-2.313m-1.373 5.77h5.059c.274 0 .496.188.496.422v.094c0 .234-.222.422-.496.422h-5.059c-.274 0-.496-.188-.496-.422v-.094c0-.234.222-.422.496-.422m0 1.973h5.059c.274 0 .496.188.496.422v.094c0 .234-.222.422-.496.422h-5.059c-.274 0-.496-.188-.496-.422v-.094c0-.234.222-.422.496-.422m0 1.951h5.059c.274 0 .496.188.496.422v.094c0 .234-.222.422-.496.422h-5.059c-.274 0-.496-.188-.496-.422v-.094c0-.234.222-.422.496-.422" transform="matrix(.99999 0 0 1-.0001.008)" fill="#fff"/></svg>
